src/topics/icons/etcd.svg

<svg height="248" preserveAspectRatio="xMidYMid" viewBox="0 0 256 248" width="256" xmlns="http://www.w3.org/2000/svg"><path d="m252.386416 128.063547c-1.202238.100759-2.410201.147703-3.693734.147703-7.445861 0-14.669594-1.746107-21.18687-4.944061 2.169754-12.447171 3.092615-24.9870872 2.851022-37.4812035-7.065725-10.2201688-15.14133-19.8632633-24.256585-28.7472303 3.954791-7.4149466 9.801103-13.7948234 17.099261-18.3186736l3.133834-1.9373208-2.442261-2.7536978c-12.581135-14.1669447-27.596517-25.11990622-44.620208-32.55202763l-3.394892-1.47703537-.862176 3.58839447c-2.030065 8.36299723-6.273393 15.90732743-12.099095 21.96202753-11.196844-5.9516511-22.894049-10.7617484-34.956504-14.4051024-12.033831 3.635339-23.710425 8.4316965-34.9026895 14.3741877-5.8016575-6.0466851-10.0346806-13.5726956-12.0567306-21.91164803l-.8679014-3.58724947-3.3822965 1.47016544c-16.8095785 7.32449247-32.2383008 18.57400606-44.6133382 32.53027286l-2.4491308 2.7594227 3.130399 1.9373208c7.275258 4.5066754 13.1055403 10.8487676 17.0534612 18.2236395-9.087775 8.8496174-17.1542202 18.4617972-24.2142203 28.6350215-.2747972 12.4883913.6011191 25.1199064 2.7811775 37.7388264-6.4852158 3.168184-13.6688746 4.894826-21.06550139 4.894826-1.29841715 0-2.51325012-.046944-3.69373343-.145413l-3.67770358-.280522.34464159 3.671978c1.80221215 18.577441 7.57066503 36.246906 17.15422011 52.52292l1.8709115 3.176199 2.8086572-2.383867c6.5092605-5.521135 14.3741876-9.177084 22.7371848-10.650684 5.5131204 11.272413 12.0475707 21.863558 19.4602273 31.696721 11.8277329 4.136844 24.1512459 7.224878 36.8777945 9.062585 1.220558 8.416812.248463 17.122161-3.0720042 25.171431l-1.4003212 3.410921 3.6009894.792332c9.220594 2.027775 18.522482 3.060555 27.630866 3.060555l27.622852-3.060555 3.604424-.792332-1.403756-3.417791c-3.311307-8.04927-4.283403-16.764924-3.062845-25.182881 12.67617-1.838851 24.953883-4.920016 36.738107-9.044265 7.419526-9.841178 13.959701-20.439193 19.481982-31.726491 8.389332 1.464441 16.298913 5.122679 22.848248 10.659845l2.808658 2.380431 1.861751-3.168184c9.60073-16.296623 15.368038-33.964943 17.14277-52.512615l.344642-3.665108zm-84.89633 44.89615c-13.067755 3.554045-26.339319 5.348242-39.531878 5.348242-13.228054 0-26.483588-1.793052-39.5627933-5.348242-7.175644-11.149899-12.8490628-23.094421-16.9320924-35.669831-4.0658547-12.517017-6.4451411-25.630572-7.1355693-39.133423 8.4465814-10.4434416 18.0518912-19.591901 28.6647912-27.2930947 10.7846478-7.8443173 22.5173468-14.2173242 34.9656638-19.0113918 12.427707 4.7952126 24.138651 11.1590595 34.898109 18.9701722 10.65412 7.7424133 20.301794 16.961862 28.789595 27.470568-.723633 13.4261373-3.131544 26.4641233-7.204268 38.9605293-4.072725 12.57312-9.764464 24.555427-16.951558 35.706471zm-28.739215-62.997276c0 9.232044 7.481356 16.69966 16.700805 16.69966 9.217158 0 16.690499-7.466471 16.690499-16.69966 0-9.196549-7.473341-16.6927896-16.690499-16.6927896-9.219449 0-16.700805 7.4962406-16.700805 16.6927896zm-21.578456 0c0 9.232044-7.480211 16.69966-16.69966 16.69966-9.2263186 0-16.6859197-7.466471-16.6859197-16.69966 0-9.193114 7.4607461-16.6893546 16.6859197-16.6893546 9.219449 0 16.69966 7.4962406 16.69966 16.6893546z" fill="#419eda"/></svg>

<?xml version="1.0" encoding="UTF-8" standalone="no"?>
<svg width="256px" height="248px" viewBox="0 0 256 248" version="1.1" xmlns="http://www.w3.org/2000/svg" xmlns:xlink="http://www.w3.org/1999/xlink" preserveAspectRatio="xMidYMid">
    <g>
        <path d="M252.386416,128.063547 C251.184178,128.164306 249.976215,128.21125 248.692682,128.21125 C241.246821,128.21125 234.023088,126.465143 227.505812,123.267189 C229.675566,110.820018 230.598427,98.2801018 230.356834,85.7859855 C223.291109,75.5658167 215.215504,65.9227222 206.100249,57.0387552 C210.05504,49.6238086 215.901352,43.2439318 223.19951,38.7200816 L226.333344,36.7827608 L223.891083,34.029063 C211.309948,19.8621183 196.294566,8.90915678 179.270875,1.47703537 L175.875983,0 L175.013807,3.58839447 C172.983742,11.9513917 168.740414,19.4957219 162.914712,25.550422 C151.717868,19.5987709 140.020663,14.7886736 127.958208,11.1453196 C115.924377,14.7806586 104.247783,19.5770161 93.0555185,25.5195073 C87.253861,19.4728222 83.0208379,11.9468117 80.9987879,3.60785927 L80.1308865,0.0206097959 L76.74859,1.49077524 C59.9390115,8.81526771 44.5102892,20.0647813 32.1352518,34.0210481 L29.686121,36.7804708 L32.81652,38.7177916 C40.091778,43.224467 45.9220603,49.5665592 49.8699812,56.9414311 C40.7822062,65.7910485 32.715761,75.4032283 25.6557609,85.5764526 C25.3809637,98.0648439 26.25688,110.696359 28.4369384,123.315279 C21.9517226,126.483463 14.7680638,128.210105 7.37143701,128.210105 C6.07301986,128.210105 4.85818689,128.163161 3.67770358,128.064692 L0,127.78417 L0.344641587,131.456148 C2.14685374,150.033589 7.91530662,167.703054 17.4988617,183.979068 L19.3697732,187.155267 L22.1784304,184.7714 C28.6876909,179.250265 36.552618,175.594316 44.9156152,174.120716 C50.4287356,185.393129 56.9631859,195.984274 64.3758425,205.817437 C76.2035754,209.954281 88.5270884,213.042315 101.253637,214.880022 C102.474195,223.296834 101.5021,232.002183 98.1816328,240.051453 L96.7813116,243.462374 L100.382301,244.254706 C109.602895,246.282481 118.904783,247.315261 128.013167,247.315261 L155.636019,244.254706 L159.240443,243.462374 L157.836687,240.044583 C154.52538,231.995313 153.553284,223.279659 154.773842,214.861702 C167.450012,213.022851 179.727725,209.941686 191.511949,205.817437 C198.931475,195.976259 205.47165,185.378244 210.993931,174.090946 C219.383263,175.555387 227.292844,179.213625 233.842179,184.750791 L236.650837,187.131222 L238.512588,183.963038 C248.113318,167.666415 253.880626,149.998095 255.655358,131.450423 L256,127.785315 L252.386416,128.063547 L252.386416,128.063547 Z M167.490086,172.959697 C154.422331,176.513742 141.150767,178.307939 127.958208,178.307939 C114.730154,178.307939 101.47462,176.514887 88.3954147,172.959697 C81.2197707,161.809798 75.5463519,149.865276 71.4633223,137.289866 C67.3974676,124.772849 65.0181812,111.659294 64.327753,98.156443 C72.7743344,87.7130014 82.3796442,78.564542 92.9925442,70.8633483 C103.777192,63.019031 115.509891,56.6460241 127.958208,51.8519565 C140.385915,56.6471691 152.096859,63.011016 162.856317,70.8221287 C173.510437,78.564542 183.158111,87.7839907 191.645912,98.2926967 C190.922279,111.718834 188.514368,124.75682 184.441644,137.253226 C180.368919,149.826346 174.67718,161.808653 167.490086,172.959697 L167.490086,172.959697 Z M138.750871,109.962421 C138.750871,119.194465 146.232227,126.662081 155.451676,126.662081 C164.668834,126.662081 172.142175,119.19561 172.142175,109.962421 C172.142175,100.765872 164.668834,93.2696314 155.451676,93.2696314 C146.232227,93.2696314 138.750871,100.765872 138.750871,109.962421 L138.750871,109.962421 Z M117.172415,109.962421 C117.172415,119.194465 109.692204,126.662081 100.472755,126.662081 C91.2464364,126.662081 83.7868353,119.19561 83.7868353,109.962421 C83.7868353,100.769307 91.2475814,93.2730664 100.472755,93.2730664 C109.692204,93.2730664 117.172415,100.769307 117.172415,109.962421 L117.172415,109.962421 Z" fill="#419EDA"></path>
    </g>
</svg>
